src/icons/IconMLSP/IconMLSP_size_m.svg

<svg width="24" height="24" viewBox="0 0 24 24" fill="none" xmlns="http://www.w3.org/2000/svg">
  <path
    fill-rule="evenodd"
    clip-rule="evenodd"
    d="M8 1H16V3H14.5L16.5833 13H19V15H5V13H7.41667L9.5 3H8V1ZM9.50555 12.8182L11.0965 5.18182H12.9035L14.4945 12.8182H9.50555Z"
    fill="black"
  />
  <path
    d="M7 19.3189C6.60617 19.334 6.20913 19.2714 5.83227 19.1301L3.46548 18.2426C3.20512 18.1449 2.91586 18.1601 2.66715 18.2845L1 19.0044V17.0044L1.77272 16.4956C2.51886 16.1225 3.38664 16.077 4.16773 16.3699L6.53451 17.2574C6.79488 17.3551 7.08414 17.3399 7.33285 17.2155L8.72312 16.5204C9.5124 16.1258 10.4354 16.0986 11.2465 16.4463L12.954 17.178C13.2491 17.3045 13.587 17.2816 13.8624 17.1164L14.5441 16.7074C15.4236 16.1797 16.5118 16.1379 17.4292 16.5966L18.7378 17.2509C18.9656 17.3648 19.2284 17.3875 19.4724 17.3143L23 16V18L20.0471 19.2299C19.3151 19.4495 18.5269 19.3815 17.8434 19.0397L17 18.618V23H15V18.7662L14.8914 18.8314C14.0654 19.327 13.0516 19.3958 12.1661 19.0163L10.4587 18.2845C10.1883 18.1687 9.88064 18.1777 9.61754 18.3093L9 18.618V23H7V19.3189Z"
    fill="black"
  />
</svg>

<svg viewBox="0 0 24 24" xmlns="http://www.w3.org/2000/svg">
  <path
    fill-rule="evenodd"
    clip-rule="evenodd"
    d="M8 1h8v2h-1.5l2.083 10H19v2H5v-2h2.417L9.5 3H8V1zm1.506 11.818l1.59-7.636h1.807l1.591 7.636H9.506z"
  />
  <path
    d="M7 19.319a2.998 2.998 0 01-1.168-.189l-2.367-.887a1 1 0 00-.798.042L1 19.005v-2l.773-.51a3 3 0 012.395-.125l2.367.887a1 1 0 00.798-.042l1.39-.695a3 3 0 012.523-.074l1.708.732a1 1 0 00.908-.062l.682-.409a3 3 0 012.885-.11l1.309.654a1 1 0 00.734.063L23 16v2l-2.953 1.23a3 3 0 01-2.204-.19L17 18.618V23h-2v-4.234l-.109.065a3 3 0 01-2.725.185l-1.707-.731a1 1 0 00-.841.024L9 18.618V23H7v-3.681z"
  />
</svg>
